dist/assets/Status Bar.svg

<svg width="375" height="40" viewBox="0 0 375 40" fill="none" xmlns="http://www.w3.org/2000/svg">
<g id="Status Bar">
<rect width="375" height="40" fill="white"/>
<g id="9:41">
<path d="M19.8672 25.5444C22.5552 25.5444 24.1519 23.4424 24.1519 19.8828C24.1519 18.5425 23.8955 17.4146 23.4048 16.543C22.6943 15.188 21.4712 14.4556 19.9258 14.4556C17.626 14.4556 16 16.001 16 18.1689C16 20.2051 17.4648 21.6846 19.479 21.6846C20.7168 21.6846 21.7202 21.106 22.2183 20.1025H22.2402C22.2402 20.1025 22.2695 20.1025 22.2769 20.1025C22.2915 20.1025 22.3428 20.1025 22.3428 20.1025C22.3428 22.5195 21.4272 23.9624 19.8818 23.9624C18.9736 23.9624 18.2705 23.4644 18.0288 22.666H16.1465C16.4614 24.4019 17.9336 25.5444 19.8672 25.5444ZM19.9331 20.1831C18.7173 20.1831 17.853 19.3188 17.853 18.1104C17.853 16.9312 18.7612 16.0303 19.9404 16.0303C21.1196 16.0303 22.0278 16.9458 22.0278 18.1396C22.0278 19.3188 21.1416 20.1831 19.9331 20.1831Z" fill="black"/>
<path d="M27.243 25.4419C27.9388 25.4419 28.4148 24.9438 28.4148 24.2847C28.4148 23.6182 27.9388 23.1274 27.243 23.1274C26.5545 23.1274 26.0711 23.6182 26.0711 24.2847C26.0711 24.9438 26.5545 25.4419 27.243 25.4419ZM27.243 19.9487C27.9388 19.9487 28.4148 19.458 28.4148 18.7988C28.4148 18.1323 27.9388 17.6416 27.243 17.6416C26.5545 17.6416 26.0711 18.1323 26.0711 18.7988C26.0711 19.458 26.5545 19.9487 27.243 19.9487Z" fill="black"/>
<path d="M35.2706 25.2881H37.0797V23.3179H38.5079V21.7212H37.0797V14.7192H34.4137C32.546 17.5317 31.0592 19.8828 30.107 21.6333V23.3179H35.2706V25.2881ZM31.8575 21.6553C33.088 19.4873 34.1866 17.7515 35.1974 16.2573H35.2999V21.7651H31.8575V21.6553Z" fill="black"/>
<path d="M42.5365 25.2881H44.4262V14.7192H42.5438L39.7826 16.6528V18.4692L42.412 16.6235H42.5365V25.2881Z" fill="black"/>
</g>
<g id="Frame" clip-path="url(#clip0_0_952)">
<path id="Vector" fill-rule="evenodd" clip-rule="evenodd" d="M305.445 15.1111H304.533C304.03 15.1111 303.621 15.5215 303.621 16.0277V23.9722C303.621 24.4785 304.03 24.8889 304.533 24.8889H305.445C305.948 24.8889 306.357 24.4785 306.357 23.9722V16.0277C306.357 15.5215 305.948 15.1111 305.445 15.1111ZM300.278 17.25H301.19C301.693 17.25 302.102 17.6604 302.102 18.1666V23.9722C302.102 24.4785 301.693 24.8889 301.19 24.8889H300.278C299.775 24.8889 299.366 24.4785 299.366 23.9722V18.1666C299.366 17.6604 299.775 17.25 300.278 17.25ZM296.935 19.3889H296.023C295.52 19.3889 295.112 19.7993 295.112 20.3055V23.9722C295.112 24.4785 295.52 24.8889 296.023 24.8889H296.935C297.439 24.8889 297.847 24.4785 297.847 23.9722V20.3055C297.847 19.7993 297.439 19.3889 296.935 19.3889ZM292.68 21.2222H291.768C291.265 21.2222 290.857 21.6326 290.857 22.1389V23.9722C290.857 24.4785 291.265 24.8889 291.768 24.8889H292.68C293.184 24.8889 293.592 24.4785 293.592 23.9722V22.1389C293.592 21.6326 293.184 21.2222 292.68 21.2222Z" fill="black"/>
<path id="Vector_2" fill-rule="evenodd" clip-rule="evenodd" d="M321.319 17.0617C323.34 17.0618 325.283 17.8422 326.747 19.2418C326.857 19.3499 327.034 19.3485 327.142 19.2387L328.196 18.1693C328.251 18.1136 328.282 18.0382 328.281 17.9598C328.281 17.8813 328.249 17.8063 328.194 17.7513C324.351 14.0484 318.287 14.0484 314.444 17.7513C314.389 17.8063 314.357 17.8813 314.357 17.9597C314.356 18.0382 314.387 18.1136 314.442 18.1693L315.496 19.2387C315.604 19.3487 315.781 19.35 315.891 19.2418C317.355 17.8422 319.299 17.0617 321.319 17.0617ZM321.319 20.541C322.429 20.541 323.5 20.9558 324.323 21.7049C324.434 21.8112 324.609 21.8089 324.718 21.6997L325.771 20.6302C325.826 20.5742 325.857 20.4981 325.856 20.419C325.855 20.3399 325.823 20.2645 325.766 20.2095C323.261 17.8662 319.38 17.8662 316.875 20.2095C316.818 20.2645 316.786 20.3399 316.785 20.419C316.784 20.4981 316.815 20.5742 316.871 20.6302L317.923 21.6997C318.031 21.8089 318.207 21.8112 318.318 21.7049C319.14 20.9563 320.21 20.5415 321.319 20.541ZM323.428 22.882C323.43 22.9613 323.399 23.0378 323.343 23.0933L321.521 24.9411C321.468 24.9953 321.395 25.0259 321.319 25.0259C321.243 25.0259 321.171 24.9953 321.117 24.9411L319.296 23.0933C319.24 23.0377 319.209 22.9613 319.21 22.882C319.212 22.8027 319.246 22.7276 319.305 22.6744C320.468 21.6854 322.171 21.6854 323.334 22.6744C323.393 22.7276 323.427 22.8027 323.428 22.882Z" fill="black"/>
<g id="Frame 1000007851">
<path id="Vector_3" opacity="0.35" d="M335.996 17.7246C335.996 16.6277 336.881 15.7385 337.972 15.7385H353.168C354.259 15.7385 355.143 16.6277 355.143 17.7246V23.2246C355.143 24.3214 354.259 25.2107 353.168 25.2107H337.972C336.881 25.2107 335.996 24.3214 335.996 23.2246V17.7246Z" stroke="black"/>
<path id="Vector_4" opacity="0.4" d="M356.504 18.6408V22.3075C357.238 21.9969 357.715 21.2745 357.715 20.4741C357.715 19.6738 357.238 18.9514 356.504 18.6408Z" fill="black"/>
<path id="Vector_5" d="M337.358 18.1218C337.358 17.5649 337.807 17.1135 338.36 17.1135H352.766C353.32 17.1135 353.769 17.5649 353.769 18.1218V22.8274C353.769 23.3842 353.32 23.8357 352.766 23.8357H338.36C337.807 23.8357 337.358 23.3842 337.358 22.8274V18.1218Z" fill="#F7CE45"/>
</g>
</g>
</g>
<defs>
<clipPath id="clip0_0_952">
<rect width="69.1434" height="11" fill="white" transform="translate(289.857 14.5)"/>
</clipPath>
</defs>
</svg>

<svg xmlns="http://www.w3.org/2000/svg" width="375" height="40" fill="none"><path fill="#fff" d="M0 0h375v40H0z"/><path fill="#000" d="M19.867 25.544c2.688 0 4.285-2.102 4.285-5.661 0-1.34-.257-2.468-.747-3.34-.71-1.355-1.934-2.087-3.48-2.087C17.627 14.456 16 16 16 18.169c0 2.036 1.465 3.516 3.479 3.516 1.238 0 2.241-.579 2.74-1.582h.124c0 2.416-.916 3.86-2.461 3.86-.908 0-1.612-.499-1.853-1.297h-1.883c.315 1.736 1.788 2.878 3.721 2.878Zm.066-5.36c-1.216 0-2.08-.865-2.08-2.074 0-1.179.908-2.08 2.087-2.08 1.18 0 2.088.916 2.088 2.11 0 1.179-.886 2.043-2.095 2.043Zm7.31 5.258c.696 0 1.172-.498 1.172-1.157 0-.667-.476-1.158-1.172-1.158-.688 0-1.172.491-1.172 1.158 0 .659.483 1.157 1.172 1.157Zm0-5.493c.696 0 1.172-.491 1.172-1.15 0-.667-.476-1.157-1.172-1.157-.688 0-1.172.49-1.172 1.157 0 .659.483 1.15 1.172 1.15Zm8.027 5.339h1.81v-1.97h1.428V21.72H37.08v-7h-2.666c-1.868 2.813-3.355 5.164-4.307 6.914v1.685h5.164v1.97Zm-3.413-3.633a79.594 79.594 0 0 1 3.34-5.398h.103v5.508h-3.442v-.11Zm10.679 3.633h1.89V14.72h-1.882l-2.761 1.934v1.816l2.629-1.846h.124v8.665Z"/><g clip-path="url(#a)"><path fill="#000" fill-rule="evenodd" d="M305.445 15.111h-.912a.915.915 0 0 0-.912.917v7.944c0 .506.409.917.912.917h.912c.503 0 .912-.41.912-.917v-7.944a.915.915 0 0 0-.912-.917Zm-5.167 2.139h.912c.503 0 .912.41.912.917v5.805a.915.915 0 0 1-.912.917h-.912a.915.915 0 0 1-.912-.917v-5.805c0-.507.409-.917.912-.917Zm-3.343 2.139h-.912a.914.914 0 0 0-.911.916v3.667c0 .506.408.917.911.917h.912c.504 0 .912-.41.912-.917v-3.667a.914.914 0 0 0-.912-.916Zm-4.255 1.833h-.912a.914.914 0 0 0-.911.917v1.833c0 .506.408.917.911.917h.912c.504 0 .912-.41.912-.917V22.14a.914.914 0 0 0-.912-.917Zm28.639-4.16c2.021 0 3.964.78 5.428 2.18a.28.28 0 0 0 .395-.003l1.054-1.07a.296.296 0 0 0-.002-.418 9.898 9.898 0 0 0-13.75 0 .296.296 0 0 0-.002.418l1.054 1.07a.28.28 0 0 0 .395.003 7.856 7.856 0 0 1 5.428-2.18Zm0 3.479c1.11 0 2.181.415 3.004 1.164a.282.282 0 0 0 .395-.005l1.053-1.07a.297.297 0 0 0-.005-.42 6.501 6.501 0 0 0-8.891 0 .296.296 0 0 0-.004.42l1.052 1.07a.282.282 0 0 0 .395.005 4.46 4.46 0 0 1 3.001-1.164Zm2.109 2.341a.288.288 0 0 1-.085.211l-1.822 1.848a.283.283 0 0 1-.404 0l-1.821-1.848a.289.289 0 0 1 .009-.419 3.106 3.106 0 0 1 4.029 0 .284.284 0 0 1 .094.208Z" clip-rule="evenodd"/><path stroke="#000" d="M335.996 17.725c0-1.097.885-1.987 1.976-1.987h15.196a1.98 1.98 0 0 1 1.975 1.987v5.5a1.98 1.98 0 0 1-1.975 1.986h-15.196a1.981 1.981 0 0 1-1.976-1.986v-5.5Z" opacity=".35"/><path fill="#000" d="M356.504 18.64v3.668a1.99 1.99 0 0 0 1.211-1.834c0-.8-.477-1.523-1.211-1.833Z" opacity=".4"/><path fill="#F7CE45" d="M337.358 18.122c0-.557.449-1.009 1.002-1.009h14.406c.554 0 1.003.452 1.003 1.009v4.705c0 .557-.449 1.009-1.003 1.009H338.36a1.005 1.005 0 0 1-1.002-1.009v-4.705Z"/></g><defs><clipPath id="a"><path fill="#fff" d="M289.857 14.5H359v11h-69.143z"/></clipPath></defs></svg>
